X:1
T:Santa Fe, 77.77 D
T:Santa Fe, 77.77 D
T:Andrew Linnaeus Byers, 1893
T:Public Domain Courtesy of the Cyber Hymnal™
C:Andrew Linnaeus Byers, 1893
Z:Public Domain
Z:Courtesy of the Cyber Hymnal™
%%score ( 1 2 ) ( 3 4 )
L:1/8
Q:1/4=105
M:9/8
K:F
V:1 treble 
V:2 treble 
V:3 bass 
V:4 bass 
V:1
 C2 [CF] | [FA]3- [FA]2 [FA] [Fc]2 [CF] | [FA]6 [FA]2 (B/A/) | [EG]3- [EG]2 C [EG]2 (A/G/) | %4
 [CF]6 C2 [CF] | [FA]3- [FA]2 [Fc] cd[Fc] | [FA]6 [FA]2 (B/A/) | [DG]3- [DG]2 [DA] [CF]2 [CG] | %8
 [CF]6 [Ac]2 [Ac] | [Gc]3- [Gc]2 [Gc] [Gc][Ad][Be] | [Af]6 [Ac]2 ([Bd]/[Ac]/) | %11
 [GB]3- [GB]2 C [GB]2 ([Ac]/[GB]/) | [FA]6 C2 [CF] | [FA]3- [FA]2 [Fc] (cd)[Fc] | %14
 [FA]6 [FA]2 (B/A/) | [DG]3- [DG]2 [DA] [CF]2 [CG] | [CF]6 |] %17
V:2
 C2 x | x9 | x8 F | x5 C x E x | x6 C2 x | x6 F2 x | x8 F | x9 | x9 | x9 | x9 | x5 C x3 | x6 C2 x | %13
 x6 F2 x | x8 F | x9 | x6 |] %17
V:3
 [F,A,]2 [F,A,] | [F,C]3- [F,C]2 [F,C] [F,A,]2 [F,A,] | [F,C]6 [F,C]2 (D/C/) | %3
 [C,B,]3- [C,B,]2 [C,G,] [C,B,]2 (C/B,/) | [F,A,]6 [F,A,]2 [F,A,] | %5
 [F,C]3- [F,C]2 [F,A,] A,B,[F,A,] | [F,C]6 [F,C]2 D/C/ | %7
 [B,,B,]3- [B,,B,]2 [B,,B,] [C,A,]2 [C,B,] | [F,A,]6 [F,C]2 [F,F] | %9
 [C,E]3- [C,E]2 [C,E] [C,C]2 [C,C] | [F,C]6 [F,F]2 [F,F] | [C,E]3- [C,E]2 [C,C] [C,C]2 [C,C] | %12
 [F,C]6 [F,A,]2 [F,A,] | [F,C]3- [F,C]2 [F,A,] (A,B,)[F,A,] | [F,C]6 [F,C]2 (D/C/) | %15
 [B,,B,]3- [B,,B,]2 [B,,B,] [C,A,]2 [C,B,] | [F,,F,A,]6 |] %17
V:4
 x3 | x9 | x8 F, | x8 C, | x9 | x6 F,2 x | x8 F, | x9 | x9 | x9 | x9 | x9 | x9 | x6 F,2 x | x8 F, | %15
 x9 | x6 |] %17

